X: 1288
T: An Gabhrán
R: reel
M: 4/4
K: Dminor
A2AG Acdc|A2 AG ADDA|A2AG Acde|1 fdec dedc:|2 fdec d2cB||
ADDE F2FD|CCCD EFGc|ADDE F2FG|AcAG ADDA|
ADDE F2FD|CCC=B, CA,G,A|ADDE F2FG|(3AAA AG ADDA||

